X:1080
T:Quartermaster's Store, The 
C:Joe Buchanan's Scottish Tome - Page 466.1
I:466 1
R:Folk
Z:Carl Allison
L:1/8
M:4/4
K:F
"F"C>F | "F"A4 A3 A | A>G F>D C E>F | "C"G4 F>G | "F"A6 C>F |
"F"A4 A3 A | A>G F>D C E>F | "C"G2 B2 A2 G2 | "F"F6 D2 |
"F"F2 A>F F2 E2 | "Bb"D2 D2 "D7"D2 D2 | "Gm"G2 B>A G2 F2 | "C"E2 c2 (cB) (AG) |
"F"F4 A4 | "Bb"B4 G4 | "C"c4 c4 | "F"F6 :|

